Gruvbox-Material-Icons/actions/16/format-text-uppercase.svg

<svg xmlns="http://www.w3.org/2000/svg" width="16" height="16" viewBox="0 0 16 16">
 <defs>
  <style id="current-color-scheme" type="text/css">
   .ColorScheme-Text { color:#ebdbb2; } .ColorScheme-Highlight { color:#458588; }
  </style>
 </defs>
 <path style="fill:currentColor" class="ColorScheme-Text" d="M 11.214844 2 L 8.7148438 5 L 13.714844 5 L 11.214844 2 z M 3.828125 6 L 1 14 L 2.1425781 14 L 3.1171875 11.714844 L 5.8398438 11.714844 L 6.7148438 14 L 7.8574219 14 L 5.265625 6 L 3.828125 6 z M 8.7148438 6 L 8.7148438 14 L 12.714844 14 A 2.2857 2.2857 0 0 0 15 11.714844 A 2.2857 2.2857 0 0 0 13.466797 9.5605469 A 2.2857 2.2857 0 0 0 13.857422 8.2851562 A 2.2857 2.2857 0 0 0 11.572266 6 L 8.7148438 6 z M 9.8574219 7.1425781 L 11.572266 7.1425781 A 1.1429 1.1429 0 0 1 12.714844 8.2851562 A 1.1429 1.1429 0 0 1 11.572266 9.4277344 L 9.8574219 9.4277344 L 9.8574219 7.1425781 z M 4.546875 7.2402344 L 5.6191406 10.572266 L 3.3632812 10.572266 L 4.546875 7.2402344 z M 9.8574219 10.572266 L 12.714844 10.572266 A 1.1429 1.1429 0 0 1 13.857422 11.714844 A 1.1429 1.1429 0 0 1 12.714844 12.857422 L 9.8574219 12.857422 L 9.8574219 10.572266 z"/>
</svg>

<svg width="16" height="16" viewBox="0 0 16 16" xmlns="http://www.w3.org/2000/svg">
  <defs>
    <style id="current-color-scheme" type="text/css">.ColorScheme-Text { color:#ebdbb2; } .ColorScheme-Highlight { color:#458588; }</style>
  </defs>
  <path class="ColorScheme-Text" d="m11.21 2-2.5 3h5l-2.5-3zm-7.387 4-2.828 8h1.143l0.9746-2.285h2.723l0.875 2.285h1.143l-2.592-8h-1.438zm4.887 0v8h4a2.286 2.286 0 0 0 2.285-2.285 2.286 2.286 0 0 0-1.533-2.154 2.286 2.286 0 0 0 0.3906-1.275 2.286 2.286 0 0 0-2.285-2.285h-2.857zm1.143 1.143h1.715a1.143 1.143 0 0 1 1.143 1.143 1.143 1.143 0 0 1-1.143 1.143h-1.715v-2.285zm-5.311 0.09766 1.072 3.332h-2.256l1.184-3.332zm5.311 3.332h2.857a1.143 1.143 0 0 1 1.143 1.143 1.143 1.143 0 0 1-1.143 1.143h-2.857v-2.285z" fill="currentColor"/>
</svg>
